16x16/panel/motrix-tray-active.svg

<svg height="16" width="16" xmlns="http://www.w3.org/2000/svg"><path d="m1.875 1a.873.873 0 0 0 -.875.875v12.25c0 .485.39.875.875.875h12.25c.485 0 .875-.39.875-.875v-12.25a.873.873 0 0 0 -.875-.875h-2.125v2.299c0 .388-.35.701-.754.701h-6.492c-.404 0-.754-.313-.754-.701v-2.299zm1.125 10h3c.554 0 1 .446 1 1v2h-1v-2h-1v2h-1v-2h-1v2h-1v-2c0-.554.446-1 1-1zm8 0h2c.554 0 1 .446 1 1v1c0 .554-.446 1-1 1h-2c-.554 0-1-.446-1-1v-1c0-.554.446-1 1-1zm-2.5 1a.499.499 0 1 1 0 1 .499.499 0 1 1 0-1zm2.5 0v1h2v-1z" fill="#8b9cbe"/><path d="m5 2v1h2v-1zm4 0v1h2v-1z" fill="#4285f4"/></svg>

<svg height="16" width="16" xmlns="http://www.w3.org/2000/svg">
    <path d="M1.875 1A.873.873 0 0 0 1 1.875v12.25c0 .485.39.875.875.875h12.25c.485 0 .875-.39.875-.875V1.875A.873.873 0 0 0 14.125 1H12v2.299c0 .388-.35.701-.754.701H4.754C4.35 4 4 3.687 4 3.299V1zM3 11h3c.554 0 1 .446 1 1v2H6v-2H5v2H4v-2H3v2H2v-2c0-.554.446-1 1-1zm8 0h2c.554 0 1 .446 1 1v1c0 .554-.446 1-1 1h-2c-.554 0-1-.446-1-1v-1c0-.554.446-1 1-1zm-2.5 1a.499.499 0 1 1 0 1 .499.499 0 1 1 0-1zm2.5 0v1h2v-1z" fill="#f4f4f7"/>
    <path d="M5 2v1h2V2zm4 0v1h2V2z" fill="#4285f4"/>
</svg>
